svg/filled/gear.svg

<svg width="24" height="24" viewBox="0 0 24 24" fill="none" xmlns="http://www.w3.org/2000/svg">
<path fill-rule="evenodd" clip-rule="evenodd" d="M17.6527 10.3496L19.7085 10.6856C19.8769 10.713 20.0003 10.8584 20 11.0289V12.9419C20 13.1106 19.8789 13.2553 19.7123 13.2845L17.6537 13.6459C17.5344 14.0584 17.3706 14.4557 17.1643 14.8313L18.3811 16.5207C18.4809 16.6591 18.4653 16.8494 18.3449 16.9701L16.9924 18.3235C16.8728 18.4428 16.6849 18.4598 16.5465 18.3621L14.8402 17.1652C14.4639 17.3746 14.0642 17.5416 13.6471 17.6643L13.2836 19.713C13.2544 19.879 13.11 20 12.9413 20H11.0281C10.858 20 10.7129 19.8772 10.6855 19.7099L10.3459 17.6713C9.92956 17.551 9.52778 17.385 9.14758 17.176L7.45352 18.3624C7.31542 18.4595 7.12723 18.4428 7.00791 18.3235L5.65545 16.9701C5.53544 16.8494 5.51978 16.6598 5.61858 16.5217L6.81555 14.8477C6.6044 14.4657 6.43673 14.0626 6.31533 13.6442L4.28698 13.2845C4.12105 13.255 4 13.1106 4 12.9419V11.0289C4 10.8591 4.12314 10.7137 4.29081 10.6859L6.31916 10.3482C6.44126 9.9287 6.60892 9.52557 6.81938 9.1447L5.63701 7.45322C5.53996 7.31513 5.55666 7.1273 5.67597 7.008L7.02809 5.656C7.1488 5.536 7.33768 5.52 7.47648 5.61913L9.15662 6.81913C9.53405 6.61252 9.93478 6.448 10.3522 6.328L10.6848 4.29183C10.7122 4.12348 10.8576 4 11.0281 4H12.9413C13.1104 4 13.2547 4.12174 13.2839 4.288L13.6426 6.3353C14.0576 6.456 14.4576 6.62226 14.8364 6.83165L16.5211 5.62087C16.6595 5.52104 16.8495 5.5367 16.9702 5.65704L18.323 7.00904C18.4423 7.1287 18.459 7.31687 18.3619 7.45496L17.1618 9.16522C17.3678 9.54052 17.5323 9.93704 17.6527 10.3496ZM9.56501 12C9.56501 13.3447 10.6552 14.4348 12 14.4348C13.3448 14.4348 14.435 13.3447 14.435 12C14.435 10.6553 13.3448 9.56522 12 9.56522C10.6552 9.56522 9.56501 10.6553 9.56501 12Z" fill="black"/>
</svg>

<svg xmlns="http://www.w3.org/2000/svg" viewBox="0 0 24 24" fill="currentColor">
  <path fill-rule="evenodd" d="M17.653 10.35l2.056.336a.347.347 0 01.291.343v1.913a.348.348 0 01-.288.342l-2.058.362a5.82 5.82 0 01-.49 1.185l1.217 1.69c.1.138.084.328-.036.45l-1.353 1.352a.347.347 0 01-.445.04l-1.707-1.198c-.376.21-.776.377-1.193.5l-.363 2.048a.347.347 0 01-.343.287h-1.913a.347.347 0 01-.343-.29l-.34-2.039a5.87 5.87 0 01-1.197-.495l-1.694 1.186a.348.348 0 01-.446-.038L5.655 16.97a.349.349 0 01-.036-.448l1.197-1.674a5.865 5.865 0 01-.5-1.204l-2.029-.36A.348.348 0 014 12.942v-1.913c0-.17.123-.315.29-.343l2.03-.338c.121-.42.289-.822.5-1.203L5.636 7.453a.347.347 0 01.039-.445l1.352-1.352c.12-.12.31-.136.448-.037l1.68 1.2a5.86 5.86 0 011.196-.491l.333-2.036A.348.348 0 0111.028 4h1.913c.17 0 .314.122.343.288l.359 2.047c.415.121.815.287 1.193.497l1.685-1.211a.348.348 0 01.45.036l1.352 1.352c.12.12.136.308.039.446l-1.2 1.71c.206.376.37.772.49 1.185zM9.565 12a2.435 2.435 0 104.87 0 2.435 2.435 0 00-4.87 0z" clip-rule="evenodd"/>
</svg>
